ERK
CUT[LOOT ONS NOCH ENS DRENKEN]
REG[Europa, Mitteleuropa, Deutschland, Niederrhein; Westfalen]
TRD[]
FKT[]
SIG[E0996]
KEY[E0996   08  F 2/4]
MEL[1234  5_+1_
    66+16  655_
    5444  3_5_
    2123  1_0_ //]
BEM[]
MEL_SEM[2 2 1 2 5 -3 0 3 -3 0 -2 0 0 -2 0 0 -1 3 -5 -2 2 2 -4]
MEL_RAW[1234  5+1
    66+16  655
    5444  35
    2123  10]
NO_REP[12345+1
    6+165
    5435
    212310]
RTM[xxxx  x_x_
    xxxx  xxx_
    xxxx  x_x_
    xxxx  x_x_]
SCL_DEG[123456+1]
SCL_SEM[2 2 1 2 2 3]

